X:3
T:Ode to Joy
M:4/4
L:1/4
Q:1/4=120
K:C
E E F G|G F E D|C C D E|E3/2 D/2 D2|
E E F G|G F E D|C C D E|D3/2 C/2 C2||

